X:1
T:Wonderful Book
T:Howard E. Smith
T:Wonderful Book
T:Public Domain
T:Public Domain
T:Public Domain
C:Howard E. Smith
Z:Public Domain
%%score ( 1 2 ) 3
L:1/8
M:6/8
K:D
V:1 treble 
V:2 treble 
V:3 bass 
V:1
 [FA][FB][Fc] [Fd][Fc][FB] | [FA][DF][GB] [FA]3 | [EG]E[EB] [EA]3 | [DF]D[DB] [DA]3 | %4
w: 1.~Word of the Fa- ther, O|light from on high,|Won- der- ful book,|der- ful book, Guide|
w: 2.~Bread for our souls such a|boun- ti- ful store,|Won- der- ful book,|der- ful book, Feast-|
w: 3.~Stream by the way- side from|foun- tains a- bove,|Won- der- ful book,|der- ful book, Bath-|
 [FA][FB][Fc] [Fd][Fc][FB] | [FA][DF][GB] [FA]3 | [GA][GB][Gc] [Fd]2 [Ge] | [Fd]3- [Fd]2 z || %8
w: our glo- ri- ous home in|the sky, Won- der-|ful book of life. *||
w: on thee we shall hun- ger|no more, Won- der-|ful book of life. *||
w: our spir- its in in- fin-|ite love, Won- der-|ful book of life. Won-|der- *|
"^Refrain" (z [FA][FA] z) [FA][B,B] | z [A,D][A,D] z [A,D][A,D] | z [FA][FA] z [FA][A,B] | %11
w: |||
w: |||
w: * * ful book,||* * ous book,|
 z [CE][CE] z [CE][CE] | z [CE][CE] (z [EG])[B,B] | z [DF][DF] z [FA][Cc] | %14
w: |||
w: |||
w: |* * * and|* * ly a|
 z [EG][EG] z [^GB][Dd] | z [EG][EG] z [EG][A,A] | z [FA][FA] z [FA][B,B] | %17
w: |||
w: |||
w: * * sure most|* * ly, A|* * el so|
 z [A,D][A,D] z [A,D][A,D] | z [FA][FA] z [FA][Dd] | z [GB][GB] z [GB][GB] | %20
w: |||
w: |||
w: |* * for all||
 z [GB][GB] z [GB][B,B] | z [DF][DF] z [FA][FA] | [EGd][EGd][EGd] [FAd]2 [EGc] | [DFAd]6 |] %24
w: ||||
w: ||||
w: * * of the|* * * ther,|* der- ful book of|life.|
V:2
 x6 | x6 | x E x4 | x D x4 | x6 | x6 | x6 | x6 || [Dd]3 [Cc]2 x | [F,F]3- [F,F]3 | [Dd]3 [Cc]2 x | %11
w: ||won-|to||||||||
w: ||won-|ing||||||||
w: ||won-|ing|||||glo- *|ri- *|To *|
 [G,G]3- [G,G]3 | [G,G]3 [Cc]2 x | [A,A]3 [Dd]2 x | [B,B]3 [Ee]2 x | [Cc]3 [B,B]2 x | %16
w: |||||
w: |||||
w: high *|low- *|trea- *|ho- *|jew- *|
 [Dd]3 [Cc]2 x | [F,F]3- [F,F]3 | [Dd]3 [Cc]2 x | [Ee]3 [Ee]3 | [Ee]3 [Dd]2 x | [A,A]3 [Dd]3 | x6 | %23
w: |||||||
w: |||||||
w: rare, *|balm *|care, *|Gift *|Fa- *|won- *||
 x6 |] %24
w: |
w: |
w: |
V:3
 [D,D][D,D][D,D] [D,D][D,D][D,D] | [D,D][D,A,][D,D] [D,D]3 | [A,C][A,C][A,C] [A,C]3 | %3
 [D,A,][D,F,][D,G,] [D,F,]3 | [D,D][D,D][D,D] [D,D][D,D][D,D] | [D,D][D,A,][D,D] [D,D]3 | %6
 [A,C][A,D][A,E] [A,D]2 [A,C] | [D,D]3- [D,D]2 z || [D,,D,]3 [A,,,A,,]3 | [D,,D,]3 [A,,,A,,]3 | %10
 [D,,D,]3 [A,,,A,,]3 | [E,,E,]3 [B,,,A,,]3 | [E,,E,]3 [A,,,A,,]3 | [D,,D,]3 [F,,F,]3 | %14
 [G,,G,]3 [E,,E,]3 | [A,,A,]3 [A,,,A,,]3 | [D,,D,]3 [A,,,A,,]3 | [D,,D,]3 [A,,,A,,]3 | %18
 [D,,D,]3 [F,,F,]3 | [G,,G,]3 [G,,,G,,]3 | [G,,G,]3 [G,,G,]3 | [A,,A,]3 [F,,F,]3 | %22
 [E,,E,]3 [A,,A,]2 [A,,A,] | [D,,D,]6 |] %24

